/* XPM */
static char *east[] = {
/* columns rows colors chars-per-pixel */
"64 64 70 1",
"  c #5756BD",
". c #5857BE",
"X c #5B5ABE",
"o c #7474BC",
"O c #7877BE",
"+ c #7A79BE",
"@ c #5E5EC0",
"# c #605FC1",
"$ c #6363C2",
"% c #6867C3",
"& c #6B6BC5",
"* c #706FC7",
"= c #7474C6",
"- c #7675C8",
"; c #7877C5",
": c #7877C8",
"> c #7D7CC4",
", c #7C7BCA",
"< c #807FC4",
"1 c #807FCC",
"2 c #8282C6",
"3 c #8483CC",
"4 c #8887C7",
"5 c #8887CB",
"6 c #8B8BC6",
"7 c #8C8CCA",
"8 c #8686D0",
"9 c #8C8CD0",
"0 c #908FC6",
"q c #908FCC",
"w c #908FD0",
"e c #9392C6",
"r c #9493CC",
"t c #9897CC",
"y c #9B9ACE",
"u c #9494D2",
"i c #9897D2",
"p c #9C9BD3",
"a c #A09FD3",
"s c #A3A3D4",
"d c #A5A5D8",
"f c #A8A7D5",
"g c #A8A7D9",
"h c #ACACD5",
"j c #ABABDA",
"k c #B0AFD7",
"l c #B0AFD8",
"z c #B2B1D7",
"x c #B4B4DB",
"c c #B8B7DB",
"v c #BCBCD5",
"b c #BDBCDB",
"n c #B7B7E0",
"m c #B8B7E0",
"M c #BBBAE1",
"N c #C0BFD7",
"B c #C0BFDB",
"V c #C1C1DD",
"C c #C9C9DF",
"Z c #C2C1E1",
"A c #E5E5EA",
"S c #E8E7ED",
"D c #E8E8EE",
"F c #EDEDF2",
"G c #EFF0F2",
"H c #F5F5EF",
"J c #F3F3F3",
"K c #F8F7F1",
"L c #F8F8F5",
"P c #FEFEFA",
/* pixels */
"rs2fu5,vb57rs2prta4gu5;vV37ph5gtts4fpu2VN15uf5sttf5gpq3VN2wph8gr",
"i,=ugs 22Xdju,3rr3,qgs ,2$gjp15ur5;ujf$4>@sfu,1ty71pjs@12$glp,3p",
"DFJFFFaq7sDFFFFAAFJFFFsrrsDFFJJASFJJFFfr6fDFFJFAAFJFFFs67gDFFJFS",
"LPLLLFfpyfFLLLPKLPLLPFjpajFPLJPKKPLJLFgasgFLLLPJHPLLPFjaajFPLLPL",
"bMDFLF7hfqJJJFMVVxFFLJugluFJFFMVbMFFLFwhkwGLFFxvbnFFLFuzzpFLFFMb",
"xpuDLJ:64=JKDpaczp9DLJ=44:KLFupzcpuFLJ:44=JHF7ikzpuFLJ,771JLFupx",
"p:pcPF3ss5FPMa1hf:pxPF,as1FPMp,ff,pcPF3sa1FPxu*aa:aMPF1sg8FPMp-p",
";szVLApeepAKVzf2>fxbHAueepAKbzs>+hzVHAre6wAHblaoOscbHAr00uALbzs=",
"=azVKAyt0rAKVzh2>szMLAteryAHbkaOOszVLAr00rAKbks+OscVKAr00tSJZzs=",
"p=pcPJ5fs1FPMs1fs-pxPF5sa8FPxw*aa=uxPF1ss2FPnp:ss:aMPF:pa1JPMu=p",
"zpuFJJ3rq:FLFppczptFLJ1671JLD7uzzurDLJ:44:FLFipzzpuFLJ=24,JLF7pz",
"bMFFJJuzzrJLFFMVVMFFLFuhztFJFFcNbnDFLFqhluFLFFMbvmFFJJ9hhqFLFFMM",
"LPLJLJjaajFPLLPLJPLLLGlssjFLLLPJHPLLLFgpagFPJLPJKPLJLFgppdFLLPPL",
"SFJFFDs7rgFFFJFADGJFFDgytfFGFJFAAFLFJFs66gDJFJFAAFJFFFg75pFJFJFA",
"p32phg.;4&ggi,8py73tjd#25%gxp37yp5:qfs@>4$ahi,3tr,:9gp ,, sgu:8p",
"ef7xar2vv4eah7s0rsqzf62vv2thzrfets7har,vv5wak6s06a4ht4>vv>esh7s5",
"rsrzfu4vv4rszqs0ts7za72vv2rfz6sttfrkye,vv3rsz4s00a7hp7,vB27sh7f7",
"a91pxg$43%jjp33it3:qfsX,1$flp15yy51uga >4@sjq=3re3,ugp@23@dgu:3p",
"SFJFFFsqegFFFJFASFJFJDs76sFFFGFAAFFFFFs77aDFFJFAAFJFJFgrugDJJJFD",
"LPLLLJjapjJLJLPKKPLLLFfpagFLLLPHHPLLLFfyyfFLJPPLLPLLLJgasjFPLLPL",
"MMFFLJixhuJJFFmBMnFFJF9hhuFLFDcNNMFFJJwfhqFLFDxbBMFFJJuhxpJLFFMM",
"xppFLJ197,JLFqpzziqDLJ=64;JHFwukzpqDJK=45=FLF9uzzpuFLJ,79,JPFupc",
"a,pZPF9ff5FPmp:ss:pnPF:aa3FPxu&as=inPF1sa:FPxp=ss:pMPJ8gf8FPMp,p",
";hcCLApttpSLZxf+OszbLAr06rAHchtoOskcHAr06rALczs+;szCLApttpDLZzf;",
">hcCJApttpSKZxg;;szVLArr0rAHchyoOakvJAre0tAKVzaO+gzMLSpyriDLMxg;",
"s1sMPJ8ss3FPnp:ss:pcPF,aa2FPxq&yy=ulPF1aa3FLcp=as-pMPF3fs3JPmi,a",
"MppFLJ1r7,JPFupzzpuFLJ=46,JJF8qhku7DLJ;67,JLFqpzzpqFLJ,77,JLF7pM",
"MMFJLFpzhuFLFFnbZMFFLFqhhuJJFDxvvcFFLFtlzuFLFFMMZMFFLFuzhrJLFFMZ",
"PPLLLJjssjFLLLPLJPLLLFgyahJJLLPHHPLHLGjaahFJLLPKLPLLJFfppgJLLPPL",
"DFLFJFfpugFJJJFASFJFFFgrtfFFJFFAAFJFFDfq7dFJFJFSAFJFJFd77dDJJJFF",
"p3,ujj&44$sgu,9pp1,pjg$45&sgu:1rw1=ujf#>2$dju38pu1,uja@<3@sgu39p",
"7srzgp7VV4qdj7gr0a7zsr4cv2wyh4seea4haq>vv37azrftrg7hpq,bv,7axrhu",
"qfrjsp6VV5ufz7ft7a5zar,vv>rph4ates6hyw>vv,raz7gtes7hp9,bv4qaxqjt",
"p81phg&42#sjp,7pr3=pgaX2:@sjq=,pt51ujs$5>@sgu,3pi1:ujp.2,$gxu,8s",
"SFLFFFguraFFFJFASFJFFFp7rpDFFJFSAFJJGFs6egFFFJFDSJJFJFsrrgDFFJFF",
"PPLLLFjsfjFLJPPKLPLLLFgppgFLLPPJHPLLLGdaajFLLLPLJPLLJJgashFPLLPP",
"ZMFFLFuhzpJLFFMVVMFFJFuhzuFPFFMCZMFFLFulzuJLFFxZZMFFLFqzjpJLJFMZ",
"cpuFLJ,77,FLFppxzpiFLJ:77:JLFipcbstFLJ1w7,JJF7pxxu9DLJ=49,JLFudM",
"p:pnPF8aa3FPbp,ff,sMPJ1ss1FPMp=ag5sMPF8hf7FPnu:fs:pnPF1af8FPMp,p",
";szZKAteerAKVch24gbZKSperuSLVza>2gcCHAyytpSKMzs+;szbLSrttpSLZMf;",
";fxbLArretAKVzj<>sMZKSayttALVzg+<fcVLApatyAKbza>,dxZLDtrepSLZcg;",
"a,pnPF,ss5FPMd3hf,dMPF3ff8FPMs3ff,abPFuhh7FPnp:ss-inPF3gf7JPMp,a",
"bprFLJ;4q,JLFiaczspFLJ179,JLFpdzzppFLJ7pu1JLFupzzpwFLJ,7u3JLFupM",
"ZMFFLFrhhuFJFFMVVZFJLJpzxpJLFFMMbMFFLFpxzpFLFDMVBMFJLJpzzuJLJFMZ",
"LPLLLFjpajFLJLPKLPLLLJjgajJPLLPKHPLLLFxfphFPJLPHKPLLPFjsgjJLLLPL",
"DFJJFFgrrdSJFJFAAJJFLFgurgFFFJFADFJFFFxpugFFJJFDAFJJFDgipgFJJJFF",
"pu3rjgX23@pgi,1ru93gnj*35$gju,3tt3,ujg=w7&fxu,3ri3,ihg%69&gxu18p",
"rj7hpe2vv2rsz4sqes7zsirVv4rah7stes7lst3NN4iszrfttfqjpr5VV5psz5gr",
"tf7zfr4vv27shqsers7har3Bb5tsh4a7es5zae2Vv4razqfttfqzsr5VN5usz3s7",
"p71pjg%35Xsji,1ip3,9gg#55$sju:1rq3=uggX,,@pgq15pp3,inj&57Xgxu,1p",
"DFJFJDgersSFFJFSDJJFJFg7rjDFFJFAAFJFFFs9rpDFFJFASFJFFFjtygFJFJFD",
"LPLLLFjaajJLLLPLJPPLLFjssjFLJJPKJPLLPFfapfFLLLPJKPLLLFxsshFLLPPL",
"ZZFJLFpzzpFLFFmZCMFFJJpzhiJJFDxccnDFLFuhhqFLFFMCVMFFLJpzhpFJFFMZ",
"MdpFLJ3q71JLFrpzcpuFLJ,77,JLF7rhhuqFPJ:44:JLDqpczppFJJ2tr3JLFpac",
"g5gZPF3ff8FPMp=sj:pmPF,aa3FPMp&pp=pnPF2aa1FPMp,sj,aMPF5fs9FPZg8a",
"2hBZKAptypAKBzs<<gzVKAr60tSKBzpooazMKSu0trALbzf24hzVKAue0pAKVzh2",
"2zbVLApyeyAKVzf22szMKApt0pDHMzaooaxbLDpttrAKvzg>>szbKAtteyAHbzz2",
"j8gZPF5ff3FPci,ff-pMPF8gs3FPMp=aa=pMPF3af8FPnu=ss-pMPF7hf9JPMp8s",
"vspDLJ,7q,FLF7uzzpqDLJ:54:JJFuuxzapFLL:77,JLD7pzcpqFLJ5pt5FLDusM",
"ZMFFLFrzhrFLFFxBbnFFLFqhzqJLFFnVVMFFLFqzhrFJFFMZVMFFJJpzcaFLFFZC",
"LPLLLJgpagJLJLPKKPJKLJftpgFLLPPJJPLLLJjppfFJLLPHKPLLJJjffxFLLLPP",
"AFJFFFd7qsDFFJFAAFJJFDp7rgFFFJJADFJFJFg77sFJFFFAAFJFJFjtpjFFFJFD",
"p3:rjpX22@pfr;1pp1,ugs.22$gjp39yt5,pxg$22 shp:4pp83pzj%64%gjp18p",
"rg3fr52bb,3rg2prrs4su5,bv3rpz3gyts5hpq1vv,3us4stys7jpu4VV,7ph5ar"
};
