/* XPM */
static char *north[] = {
/* columns rows colors chars-per-pixel */
"64 32 195 2",
"   c #4D452C",
".  c #534D2D",
"X  c #5A4E2F",
"o  c #534D36",
"O  c #575022",
"+  c #57542D",
"@  c #595727",
"#  c #5C542A",
"$  c #575138",
"%  c #5C5235",
"&  c #5D543A",
"*  c #615734",
"=  c #62553B",
"-  c #635C34",
";  c #655C3B",
":  c #69573E",
">  c #685D3D",
",  c #65632B",
"<  c #6C652B",
"1  c #676334",
"2  c #656239",
"3  c #6A6333",
"4  c #6B633C",
"5  c #6E6A32",
"6  c #71663B",
"7  c #756C3D",
"8  c #786E3F",
"9  c #717034",
"0  c #7A7439",
"q  c #5F5840",
"w  c #655C42",
"e  c #625C49",
"r  c #6B5F44",
"t  c #6A5F49",
"y  c #705F44",
"u  c #66604B",
"i  c #6C6344",
"p  c #6C654B",
"a  c #6F6944",
"s  c #6E684C",
"d  c #6C6552",
"f  c #6A655C",
"g  c #6F6A56",
"h  c #6F6A5A",
"j  c #716546",
"k  c #71664B",
"l  c #736B45",
"z  c #736B4C",
"x  c #796647",
"c  c #7B6C44",
"v  c #7A6D4C",
"b  c #736752",
"n  c #756C53",
"m  c #736D5B",
"M  c #796E53",
"N  c #796E5A",
"B  c #74724A",
"V  c #7C734E",
"C  c #7B794A",
"Z  c #777156",
"A  c #76705C",
"S  c #7B7254",
"D  c #7C745B",
"F  c #7E7952",
"G  c #7E785E",
"H  c #6A6763",
"J  c #6E6A65",
"K  c #6D6C6A",
"L  c #756F64",
"P  c #757161",
"I  c #77746B",
"U  c #7D7662",
"Y  c #79746C",
"T  c #7F7863",
"R  c #777777",
"E  c #797876",
"W  c #826E44",
"Q  c #826F4A",
"!  c #857246",
"~  c #82734C",
"^  c #807C4F",
"/  c #8B7448",
"(  c #827555",
")  c #82755D",
"_  c #827B55",
"`  c #837A5D",
"'  c #8C7554",
"]  c #8C745C",
"[  c #8A7A55",
"{  c #8A7D5C",
"}  c #917951",
"|  c #807663",
" . c #847B63",
".. c #847D6A",
"X. c #8D7664",
"o. c #8A7E64",
"O. c #897E69",
"+. c #A07552",
"@. c #868256",
"#. c #85825C",
"$. c #898456",
"%. c #8C825C",
"&. c #98875A",
"*. c #868064",
"=. c #86816B",
"-. c #8B8265",
";. c #8C836B",
":. c #8F8A63",
">. c #8F886B",
",. c #878072",
"<. c #868278",
"1. c #8C8572",
"2. c #8D8A74",
"3. c #8E897A",
"4. c #918266",
"5. c #91876B",
"6. c #938864",
"7. c #938A6C",
"8. c #9A8365",
"9. c #9C8C67",
"0. c #9C8B6C",
"q. c #928670",
"w. c #938A74",
"e. c #948C7B",
"r. c #9A8D73",
"t. c #998E7B",
"y. c #9C906E",
"u. c #979175",
"i. c #9B9275",
"p. c #9B937C",
"a. c #9F997A",
"s. c #A58C6C",
"d. c #AC8D6A",
"f. c #A08D73",
"g. c #A09075",
"h. c #A2977C",
"j. c #A49A7C",
"k. c #AB9277",
"l. c #AB9C7E",
"z. c #B98B67",
"x. c #858582",
"c. c #8E8B80",
"v. c #938E81",
"b. c #959184",
"n. c #9D9483",
"m. c #9B968B",
"M. c #9E9885",
"N. c #9E988B",
"B. c #9F9C94",
"V. c #A19684",
"C. c #A1978A",
"Z. c #A49A85",
"A. c #A59C8B",
"S. c #A89D86",
"D. c #A99F8B",
"F. c #A49E93",
"G. c #A6A08B",
"H. c #ABA086",
"J. c #ABA18D",
"K. c #A7A091",
"L. c #ACA493",
"P. c #AEA699",
"I. c #AFA895",
"U. c #AFA899",
"Y. c #B2A38B",
"T. c #B1A693",
"R. c #B1A799",
"E. c #B2A996",
"W. c #B3AB9B",
"Q. c #BAAB94",
"!. c #B9AE9B",
"~. c #B7B09E",
"^. c #BCB197",
"/. c #BBB19E",
"(. c #B6AEA1",
"). c #B7B0A2",
"_. c #BAB2A4",
"`. c #BDB6A9",
"'. c #BFB8AC",
"]. c #C1B49D",
"[. c #C0B5A1",
"{. c #C4B9A6",
"}. c #C3BBAC",
"|. c #CABEAC",
" X c #C4BEB1",
".X c #C8BFB1",
"XX c #CBC1AE",
"oX c #C6C0B4",
"OX c #CAC3B4",
"+X c #CAC4B9",
"@X c #D3C6AE",
"#X c #D1C6B3",
"$X c #D5C8B1",
"%X c #D8CBB6",
"&X c #DACEB9",
/* pixels */
"6 j N L.W.W.W.~.I.D k g g S a.L.A.C.L.L.T.J.D.C.o.@.=.v.B.3.n ..v.v.m...D Z.E.h.@.l n z *.7.6._.XX^.XXOX5.l ; 2 * _ H.H.Z.n.H.J.",
"9 2 w i w.E.~.W.*.i l h x.*.D.K.K.L.J.A.D.J.T.p.D m =.=.v.b.U T c.b.c.D z #.$.^ z w.3. .` 7.7._.].XXXX{.{ 7 # - k 2 { S.M.h.S.j.",
"D u k D b ;.p.=.l 5.` h x...*.;.;.;.u.n.D.T.T.r.' i n n ,.t.G D S  .n m N m ( X.) n.m.1.D G J.$XXXXX#X{.;._ z k w.B i ` S.S.$.0 ",
"..p G ..D k z w - o.n i P e t z d d D { { *.` _ ' o.D p i C #.v.D =.m k | l x ] ) n.n.1.` V a.Q.Q.T.^.H.>. ...*.3.G $ * C C < < ",
"a % u j 4 i c.U @ 2 % p n.p w r d I n v M M M v v <.| p f z _ N. .2.| ] V.o.S ` v S z D ;.' M Y G _  .` ;...T n ..a # O , 1 3 3 ",
"s + D <.*.z 2.G 2 =.A N F.m | O.B F z g K n 9.[ Q q.D m I b S n.#.S S { ' [ U ..;.` i s G S U Y D ` m.;.3.=._ *.p # 7 0 3 2.:.9 ",
"A = n 2.,.S t.;. .U n z 3.u =._ i.J.0.D U n f.{ a O...n h x v v ~ :.f.J.~ x ) | v.=.u f d z  .D S ( c.;.=.S S n l 2 %.B s B.p.5 ",
"A ~ ( G =.t.N.L.U.M.o.n g o z { I.W.W.J.7.F *.M v ..) L K n > v j.R.D.Y.7.n M ( m.2.n f f Z C.O.` ` u D M G m.=.1.D G 6 D K.7.i ",
"` v ;.t.t.t.C.N.G.P.P.n.k : 7 i.W.E.E.W.W.G.n. .5.u.^ h H i l Z.T.L.L.T.Y.( 4 W z.' ( M D v A.w.n.m.n  .S D K.:.,.1.v 1 p m S z ",
"b s =.e.N.A.L.K.K.G.K.| % - $.J.E.E.L.U.L.G.I.P.A.5.i w & = a Z.L.Y.!.!.].l.6 y +.' 1.=...v e.;.e.n.o.w.[ v e.` | ..` v D *.p w ",
"p s g n 2.p.E.E.G.C.e.w % l H.E.I.I.L.W.K.L.G.G.I.E.m.| i r M D S.J.Q.!.Q.Q.7.) ) M X. .M ) S Q x [ %.9.&.i.J.I.S.5.8._ e.J.w.e.",
"s i n z s $ 1.n.m.P.n.i i i.~.E.P.E.I.E.I.U.L.P.I.P.W.(.G.>.D M ( V.Q.!.!.Q.Y.o.G s S ~ } r.| ! ! _ h.Y.E.E.~.W.W.5.4.C *.<.e.` ",
"u p i D D k u w D q.b r ( L.E.E.T.J.D.A.D.K.A.D.I.P.P.U.U.U.F.1.j o.E.!.!.!.Q.O.z P R P } d.:.! [ z *.M.E.W./.W./.u.*.S 2.=.z a ",
"s Z =.D.J.Z.a     % = j p.E.L.K.J.D.C.D.D.F.F.P.(.U.P.P.P.P.W.e.N n u.!.Q.).Q.Y.{ I R N Q o.o.! c l G | e.W./.~._.Y.{ D =.Z i p ",
"n A.L.E.L.D. .e w : j  .W.E.L.K.L.J.A.C.F.L.P.K.P.U.P.P.W.W.D.=.G G G P.!.].).].i.D D D ( 0.Q.&.c V S N ;.J.H.a.J./.:.l 2 a i r ",
"A.I.I.L.K.C.t.p j x C S.W.E.T.T.E.K.F.C.A.D.F.F.P.(.U.U.W.W.r. .v...S  .T.!.].R.{ ~ o.7.J.`.`.S.v S S M C G >.:.@.u.G k i i i i ",
"L.L.P.K.K.G.A. .( Q 6.E.P.L.T.E.P.K.A.A.F.A.A.F.P.(.W.W.W.n.=.,.B.N.G S  .T.j.o.( 4.F.).`.`.`.Y._ S S { n | e.D.r.a i k s ;.Z.C.",
"K.L.P.K.K.K.L.*.a ( J.E.T.L.E.E.E.E.T.D.D.L.P.R.W.`.W.(.A.U N c.B.B.e.D | N ( 4.D.(.(.(._.[._.F.o.S C S n | P ) M 4 l n D.I.I.J.",
"K.K.G.K.A.G.L.Z.r M J.!.T.L.E.T.R.T.P.D.L.L.K.T.(.`.E.E.;.D U v.K.m.=.o.| w.u.p.!.(.(.`._.`._.(.E.9.( i k j i k V 1 r N G.T.I.J.",
"G.A.A.A.K.W.L.L.N : j e.E.E.L.L.L.D.D.F.D.D.F.P.U.W.W.n.` | D D E T o.u.D.`.).C.J.).`. X`.`.).(._.H.S M n k j o.S.V.p e 5.I.I.K.",
"W.K.A.J.P.L.L.L.;.w = r O.Z.E.T.J.J.K.A.D.T.P.E.W.W.J.` S ) D ..=.r.H.~._.`.`.R.5.R.}.}.`.).`.(.W._.{ v i k ) D.J.Q.D w U E.E.L.",
"/.E.P.L.J.D.J.T.D. .x b G  .5.J.E.L.K.I.P.P.W.W./.W.>.S o.r. .w.I.oXOXoX`._. X_.n.t.)._.).`.`.).!._.p.z k  .h.D.D.J.;.% p D.@X{.",
"$X|.[.E.A.J.L.L.Z...M ) O.| M M w.L.E.E.E.P.P.E.W.C.) ) o.S.=.u.oX+XoXoX`.(.`.`.T.r.(.(.(.`.(.`._.!.E.S G C.Z.C.D.S.h.2 = D XX&X",
"&X@XOX{.T.A.D.p.T.W.;.` D ) N k e D e.I.`./.W.W.T.o.|  .5.5.| =.L.+XoX}.(.(.(._._.C.F.P.(.).`.`.).).`.r.h.n.n.m.m.n.D.S X p u.&X",
"@X@XXXXX}.Z.n.W.`.n.S z r j n  .N D b ;.D._.!._.u.D m *.~.`.M...3.W._.(.W.(.W.(._.R.C.P.).`.`.(._._.).D.w.n.m.n.C.n.D.7.* r z !.",
"@X#XOX'.P.Z.Z.D.5.n n n ) | k ) n | | D | q.T.S.S Y d =.}.`./.:. .p.(.(.(.(.W.(._.}.)._.(.)._.`._.).).(.q.e.n.n.n.v.D.Z.i * ; S ",
"_.t.2.2.2.;.D D M S G j N | a M _ v n k M M D p e L p u.'.'.'.M.U U J.(.(.(.(.(.(. X_.R.(.`.`._._._._._.S.r.e.C.n.t.V.Z.o.j j p ",
"s . p n s Z S =.7.o.r.N p b n S V.n.5. .` ( D D D p r 1.U._. XW. .s u.(.(.(.P.(.(.(.(.R.(.F.R.R.F.(.).(.L.h.Z.S.D.V.t.n.V.i a w ",
"i { 6.i s w a././.!./.T.S.U z >.J.D.D.J.T.D.r.r.5.M k z D =.u.G. .N | H.(.(.(.(.).).(.L.L.F.m.a.C.R.T.Z.=.v u.D.D.D.n.n.D.r.i r ",
"M h.0.z g >.~.~._._._.W.>.g S i.L.J.Z.n.D.D.D.S.p.S q.{ S ..U F b | ` 7.(.P.P.(.).).R.).t.n.5._ d.[.R.) r 2 k i.J.D.n.Z.Z.J.*.; ",
"k p w u t././.~./._./.w.b u z D.J.D.Z.Z.J.J.D.J.t.D ;.o.`  .D D d ..T =.B.(.(.P.).`.).k.o.N N V f..X Xj.r ; ; M Z.Y.D.Z.n.M.H.{ ",
"k k p G ~.~.~.~.E.E.u.n N D =.G.C.C.C.J.T.J.D.C.;.D O.m.N.T ;.3.U P p D 3.(.(.(._.).f.[ _ v z ;.E.T..X+X;.k i > G Y.J.D.Z.S.H.D."
};
