/* XPM */
static char *south[] = {
/* columns rows colors chars-per-pixel */
"64 64 42 1",
"  c #7F5E41",
". c #7F6044",
"X c #836346",
"o c #86664A",
"O c #87684D",
"+ c #886747",
"@ c #886749",
"# c #8B6B4D",
"$ c #8E6E52",
"% c #8F7054",
"& c #8F7159",
"* c #916F4F",
"= c #906F51",
"- c #93704F",
"; c #937355",
": c #957659",
"> c #97785D",
", c #987657",
"< c #987759",
"1 c #9B7857",
"2 c #9B7A5D",
"3 c #967A61",
"4 c #9D7D61",
"5 c #A07E5F",
"6 c #A07F61",
"7 c #9F8065",
"8 c #9D8168",
"9 c #A2805F",
"0 c #A38264",
"q c #A58569",
"w c #A7886D",
"e c #A88667",
"r c #A88769",
"t c #AA8867",
"y c #AA8A6C",
"u c #A68970",
"i c #AC8D71",
"p c #AF9075",
"a c #B08F6F",
"s c #B08F71",
"d c #B19174",
"f c #B4957A",
/* pixels */
"wqqqqifiiyy444606qqqq66666e6qye66eq6e5,,,1--;;=$$=$&>qq6qwwuu0ww",
"uwww0firiiyqqq0qqqqqe56<5,116466666661;=;;-***=;:#&:2iiiwquuwyyu",
"wqw044q4462244664444<:4::,,,<<,<66666,;=;;;;;;1<<1:>2000qquuwiui",
"343::::::::,233q644:::,:<;,:;===;,,;==;;;15655511566e6660:>43443",
">:;,;;###>:,4003<:::;,,,1;,,;=$==$=;==;&=50ee6e65156eyiw0;$>>$:<",
"42242422<<55>1441;,<66q6666qqqq66446664656e6602><<;<;,:;$$$$::24",
"22332242>2411,565,156666656666qrwqwrqwrwtttt603;::>>:;;;:$$$#$>>",
"44><<>>;==;===15516<11;;;;=$$=6iy66qqweqe5006e2>>::><>:::>;;;$34",
"qu33q3333>:::&33446<<<64<6444366663466wy666622:&&<:<;;;:;;;$;<43",
"4022>,>:::::&::>;446646<<<<646i666444466666666$$&&;;;&;=$$$$;;4q",
"w64424223>>32><<<,:<<66<<<6<4464:334444<46wwq4::&%==%%=$$#$;;;qq",
"<><<><,,:;==;<;;,;;==;;=;<:3;;&===&&;;&336634333>=-####-$;;;;<<>",
";;*;;;,;====$*=;,,,,;;;;:6<;;<644::3;:43363$:&=&&%###+###%<2721,",
"<21;::,<<<<<<2<<<;;<,46:;<:,;:;,<<4<46:,=:,,===:;%$$%%$$$$$$%%%;",
"::<>==$;><46464<::>66664=&;;;,<666<<<<,<46446442<<22>>:><&$##%%;",
"==****#:>>24224<:<446664>3:>4<6444664464q642qw4>;,:,<<:;;%%&;<;-",
"###XooO$=###O$52542121125;,<1,<::&:::&,,,,9;*$7<>9>>97778w877:##",
"#OOoXOOoOXX@X+#=;;;<222<<<646<:42;7><7<;-;;;;$777q77778uiwi79:OO",
"o#$##O###=##*#;:1>22222444>666,:2::27wyw77r797::><2<&:>97::1&&##",
"$#::;::;;==;<<qyqyqq0qqqu66ww66:9::97w0wady8979:%OO$#$&>:;:;;%#O",
"###==$:=$$==*;342q2606q0666u44<429229007y8yy779:&%%$%%:>:7,=;$$$",
"q4q060q6046wydfdiiiiiiiupff66666>292279797:991;;%;;,9992;,979977",
"iiiuuiippiiissddiiiiipiiiff5=;;<2:>:,,,=;$#;;=;;,;,99799999wadsd",
"qyq6qyuuuiiqrqqyyiiyiiiiiyr<5,;;--;;=$%#$%=11;9992777799199eet88",
"$=###=$:2>$;1122<52155;;=;&$####;%$;$;,####;;=$;===$$##$7:2:;;%#",
"OOOXXO#=;;;;;;;,1221;;,;==OOO=&;;:;&>:2,+.++#*##=###++##;71=;;=$",
";:,;<=;<,,<<1,<24>1<;:;;;;=##;:32>>72>7% .#+*$#$###;;$$;%%;$;&:,",
"666rysyyiyryyy4:>:>:::3&&:::444q77222:7<7777779<9979792227779>90",
"e6eeryaadfatya6;=&==&&&==::3:&46797777727772772,:1>72>>:&97778w0",
";;;<1<<1,11,,,,*:=&;==$#O#;&&==&%:%&&:;&&7:;:22::::;::;&7&O%OO$%",
"@@@#=#+##*###*#*##@OO@@OoO=&;&:&%%&::::&&:9<122:=72>:::;:#....XX",
"##@##**#;;;-*###;===O#O#O##$&;;:>>888:77:>72;;;:::222,22,$OOO#++",
"224;*;=;;=;121112122>:>2<:==&;,:&7:::%%&&%=;:&&&:%#:4>443>>;:;>;",
":<1<;;;;**;;<;,,,121>,=<23>>>,::%,;#$%#7&$&%%%O$$&%:>>>34;$$&:<:",
"22<1,;;==*;;;2446042<62244226>==;;=$$%$$%&%+oO&%;:;:<;:,>232><>>",
"2>21212<;,1220q00rrqyr4qyyyqq>&;&>&&&$%%%%%$O7799922122146667444",
"44004422<22;<4rrriyyiuqq04qqq::3>:%&:&$%$$%$#,9>922911999e060665",
"#$>6446432>>>444r6656422>><>6>;;&;&%:>&7>,222229772<,,,,-;-;;-;#",
"XX:434qq044>>222q42246q4422<<46522:7>:29>777q77922<---#+X   .XX ",
"$;<4qq4w032222445446iiiiuiuq6e6691787:77979<977922;###-*-#XoOOoO",
"<<,<24>2:3233>3222444qrq6yee6666999799&;&;:>&%&;><12044121211,12",
"2<,,,4q4qq6600023240qyyrqeeeee66>7797&$=%,,%$+=%;;:<>52<29562112",
"rq0q0qu6q664qq4444444yiieyayeeqe77w70979999929996466511<6ew00yyq",
"yyyiiryiipiiuuiyq646000rqeeee66etytarrrywiuwyiyfsaeee0ryyy0riiri",
"t0yyyyyiiiuuiyyiryrqrrrttaataeteaaddady79777777yaere66qyyrrrryyy",
"ee060644422232>3<24646e66655664609878y9&><7>97>7512ywwuiyiiuq600",
"qq055511<<,>,>:==:<<,,1,,,;;1,;<,*;>2:72777799::::4iiw8460q0q46q",
"yyy04442442<32>:::;<6005555<,;<<2:>997777797>779436iiuwwiiuuwq0q",
">0yry04644>2>>:><4243442224qyiirq<664::<664466r66uuuu464u3666333",
"40yuiq4qr42<>::2<33:>:3:3424444426664666666666666666664433334466",
"4424q432422244446<<:<244>422><224215656yrryyiw666444664634666>46",
"43>>3423>;<26e04<5555<<<<<,15215<,;=#*$=;uwwiyissiuuqq446343>464",
"243444:::,226695666664<446404454q6665,;:4wwydsssfiwwyq626>:34643",
":>:$:::$-;;$;;;#;3::44:3>,>,==:>660ee6656er6666a641<<5666><4>>>>",
"::$$$$;:;#;;==;*$&#OOOO#O$=&===#5yeatttttayya666644e6ywy6y6u6666",
":==::;;>:<2:::<<:&OOXO####==:=;$6yyeayttata6ta6666qyyy66wpiu6666",
"9>::<:;&$%=#%=22<4::<3:666:44>4<122124446616666aq6666434::::4343",
"7,#$=##$$##$-=:1<::4443>4444:::>2><::=<2<66>6666666646666444:3>>",
":&%%=;;;;:;&%%$=::3:&:::3:4:>43<2>;;;;;;;;:>6666644::34:3:;&::<:",
";;;&;<>226wu:O#$#$#OO@$$$====;::<;;;;;;=;#@@;;$$&::&=;:=====<5;:",
";;<:<<<<<7qw:O%$&&=$&O#==&&=:3:342<>12<;5-*#$=;;&43&;:>:;==O;<:4",
"&%%&&;7777yy7wwwyyw4346q6qq64446qyy40y64665,>646466464;=&=##=;&;",
"&;%%%#2e0etyidpdissyyswwuuiqqqq446rq4066666666664646<<&==&&&=&=;",
"<<;=;%607e0yyyypsisisiiu6qq6444q0uyye0eya66661<5,56444&;&$==;::&"
};
