/* XPM */
static char *wes[] = {
/* columns rows colors chars-per-pixel */
"64 64 31 1",
"  c #163C5D",
". c #193F5F",
"X c #1A3F60",
"o c #1B405F",
"O c #1E4261",
"+ c #224563",
"@ c #274865",
"# c #2A4A66",
"$ c #2E4D68",
"% c #304E67",
"& c #314F69",
"* c #34526A",
"= c #3A566D",
"- c #3E586F",
"; c #3F5970",
": c #415A6F",
"> c #445C71",
", c #485F72",
"< c #476074",
"1 c #4B6275",
"2 c #4F6578",
"3 c #516676",
"4 c #526778",
"5 c #566877",
"6 c #556979",
"7 c #5A6C7C",
"8 c #5F707E",
"9 c #62727F",
"0 c #647481",
"q c #697783",
"w c #707C86",
/* pixels */
"=@#@%:+@@+:@@#+::+@@$,@##@4&@#+;=@@#*,+@@+:%@@@-:@@@$1@@@@1&@@@;",
"$.OO+=.OO.*+.O %% O +: +O ,+.O $& O.+>OXOo=+oO ** Oo@;OXOO<@OOO$",
":*===1->,-1==:=,,=::,7>:,;02>,,72->>,7=-*=7>:::57>,>28;;;;0<;;=;",
"*@@@@:@@$+:#+#+=*+$$&>@@##6*#$@>>@#@$,@@@+,*##@=;@$#*1@#@@1&$$@*",
"&O+O@>O+OO*@OOO%@.+O+=.+XO,@O+ =;X+O@,OX+O>@OOO$*OOO@,X+OX<@OOO$",
"&O++@,O+++*@++O#$+++@-++@X>@++O==X+O@1X++O>@O+O*$O@+#>OO@O1#O@O$",
"$++O@>O+++*@O+O%$.++@>O+++>@O+X==O++@,+++O-@++O**O+O@>O@OO2@OOO$",
"$O++@1O++O*@++O%$+++@>O++X;@++O=*O+O#,X++O>@++O==O+O@,O+@O2$O@O#",
"$+@+@3X++O:@O+O%%+++@:++@X>@O@O**O++@>O++O>@++O*=O++@>O@@O1@O@O#",
"@X+X@3X++O=+O+O%&.+.@:X++X>@OOO$$OOO@;OO+O>@OOo**O+O@=OOOO1@O+O#",
"6::,4w33,*5,::=,,::-:3-:,,0<;>;23->>,01221q2:>;42=-=>7>,<<01>,,1",
"&+@+$6+@++:#++O=*+++$-++@X2$O@O==O@+#,O@@+3@+++**O++#1O@@O>@O@O&",
"&+@+%5+@+O=@+@O=*.++@-+@@X6$O#O*=O@+@1O@++1#@@+--+@+#1O@@O1#@@O&",
"4:,>3w::::3==:*:,=:::6>,12w2>,,06=;;,8,2,>9411>77-,,18>;,,0,;;;2",
"&X++@1O++O=+O+O%$O+O@>O+OO>@O@O*=OOO+;XOOO>@O+o**oOO@=OOOO1@OOO#",
"&X++@1O++O:@++O%&O++@,O++O,@OOO==O++@,O@+O>@O+O==O@O@;OO@O6#O@O#",
"&+++@,++@O>@O+O$*O+O@;O@+O,@O@O==O@+#1O++O>+O+o==O+O#>O@+O1#OOO$",
"&X++@>X++O>@++O**O@O$,OO+O,@O@O;;OOO#2O++O>#++O=*O@O#,OO+O>#O@O$",
"&+++@,+++O>@O+O=*OO+#,O@+O>@O@O;>O+O#<O++O>#O+o**O+O#,o++O1#O@O$",
"#X+X@,.+OO;@O+X**OOO@>OOOO;+OOX;=oOO#<OOOo>#O+o%$OOO#,o+OO<#OOO#",
"=@$@$,@$@+,$@$+;;#$@&0O@$@2$@$@;>@$@*6##$#1*###==@##*2##$@6*#$#=",
"6>,->7;>;;0,>;;00;>;>0;;,;0>;>;07;<<<7->>-8,:-=12=,:,8::<;0211<6",
"@X.X+=XXXX>OXX *$ XXO=XXXX;OXXX$* O o*oooo-Oooo%%oooo: oO >O O #",
">&=&=2&&&$0;***10$**=0&$*$2=$*$,1&*$*-$*&%1=*%@--###*2%*&$6=&*$;",
",=;*;4;;*=0;;;;4;=;=;0==**0#=**1<=-*=,*==*1==*%==%%%=6*=**2;==*>",
"$XOX+;XXXX,XXXX*$ OX#; OOO=OXXX&$OOO@=oOOO=+oOo##OOo@,oOOO=@OOO@",
"=+++#;O@+O,@+@X;=OOOO;O@OO;@++X*$O@@#>O++O-#+++%%o@O#>O@O@;@OOO&",
"*O+O@,O++X,@X+X;;O@OO0O@@O;@+++&$OOO#>O++O-#O+O**O+O@,O+OO=@@@O&",
"$O+O#>O++O>@++X;=O@O#0OOOO=@OOX**O+O#>OO+O>#O+O**o++#,O+@O=#O@O$",
"*O+O#>O+++>@++X;;OOOO;OO#O;OO@O*$O@O#,O@+O-#++O*=O++#:O++O=#O@O&",
"$XOX+;XOOX>+XXX=* XXO* OOX=OOOX$$oOO@>oOOo=+OOo*$oOo+%OOOO=OOOO$",
";*;*>0#*;;0;;;&40*=;;0*;;=0*=;*;-%*$=7=-==6=***22==--:***$>****<",
"-&*&=2$**$0;=*&11***-6&=*%3=&=&-=#%$*1%***3*%*$<<$%*=1%%##-%%%%-",
"+ O X; XX =+ . &$ O O-    -+   $#ooo+- oo =ooo ** ooO-ooOo*oo.o#",
":=*&=6;>,>0,>,->>*=*:7->,-5--==11==-:7::==7::,-78;>>14===*>-==*:",
"&+@@@>##$@2&@#@==@@@&4@@$@=$@@@==+#@%1@$@@-%@$@>>###$=###+:#@#@*",
"@++.@>XOXX>@OXO$$.++@>O++O*+X+O&=o+O+:o++o=+o+o=*OOO@=O+OO=+oo+$",
"@+++@<X@+O<$+++$$O++@>+++O-@++O==O+O@:O+@o=@++o=*O@@@=O++O=@++o@",
"@+++@>X+@X<#X@X&%O+O@1O++O-+++X**o++#<O+++=@++o=*O@O@*O+++*++++$",
"$.++@,O++X,#+++&&O++@>O+++:@+@X=-o+O@-+++o*@++o*&OOO@$O++O=@++o$",
"@+++@>X+@X,@++X**O++@>O++O>@++O;-O+O@=OO@O=#+@o**+@+@=o+++*@+++#",
"@.+O@>X+X.;@X+O** +O@=O++X=@OO.==o+O@=OOOO=+o+o**.o+@:ooOO=@O+O#",
"::,->3-:>>811<>47>,>>6>>>-61,>;78;>,>8,;:=2:>:=55->:25=-:=,=***,",
"%+@+@>+@@X1#@@X==+@+@>++@+>#+@+*=O@O#>O@@+:#+@o--O@o@-++@+=@+++#",
"$++@@-+@++,#+@O-- ++@,+@@O>#+@O-=O@@$>O#+o:#+@o-=O@+@=o@@o:$+++%",
">>>-,8>:>>8,>1>46>>>19>:,-7,>:=68<<<20<;::3---=26-==::-:::9,,::,",
"@++X@,O++O>@OO.**.+O@;O++.:@X+.*&OOO@<OO+O*@ooo**.+.@-oo+o-+OOO$",
"@+@+@>X@+O,@+++**O++@;O++O>@++.=*O@O#<OO+o-@+++==o++#:@@@o:#++O%",
"&O++@,X@+X,@X+X=*X@X#>O+++,@++.=*O+O@>++++-@++.**+++@:O++O-@++O*",
"$++O@,X+++,@++X=*O++@>O++X>@++O**O++@>O++O-@+++=*.+O@:+++O=@++O$",
"$+++#>X++X,@++X;=O@+@-O@++>@O+O%*O++@>O++O:@O+.=*+++@>O+@O-@++O*",
"@X+X@,X++X;@X+X==.+X@-OX+X=+++O$$O+O@>O++.-@.+.*%.+.@:O+OO*@OOO$",
"=@@#$,@##@1$$#+>;+#@$,@##@>&@@+%*+@@#<@@#@:*#$+==@##*<@@#@>#@@@=",
"1>>,,7>>>>8,;;*11*-=>6*>;*1-===::%==-6->>-6<>;*<,--->7>:>;6>->;,",
"@ ..X- X  =O .X$$ O X; XO.*+ O $#  .+*  O =O.OO## oo+- .O ;O O #",
",&*&=2$&=*4==*$12***=1$&&$>&&&$-:#*&*1***$3-&$#;-%*%=4#*&$1;&;&1",
"1===>8&=;=6>;;*26;=;=1=***:**=$::%%&=6===*6;=*&;;&*=;6&***6;;;*1",
"$.XX+1.XXX>@ X *= XX+&XO+.-+OO.$#.+.+: OXO=OXOX&$OOX+;OOOO;@OOO#",
"=X++#1+@+O<#+@X==O++#>X+++=@++O**O++@-+@@O>#+@X*&O@O@,O@+O<#O@O&",
"*X@X@,X+OO;@O+X**X++#>X@+.-@++O&&+++@:O++O,@O@O&*O@O@>O@+O>#OOO$",
"&X@O@,X+++;@++X=*X@O@,O++O>@O+O**O++@,O++O,#OOX=*O++@=OOOO<@@OO&",
"&+++@,X@@X=@++X**X++#,O@++,@++O**O++@>O@@O<@O@O*=O@O@;O@@O2$O@O&",
"$ OX+-.+XX=+XXX&$.XO@>.OO.>+OO.*&.OO+=OOOX;@O@X=*OOOO;OOOO,@XXX$",
"<=;=-1***&1===$11&=$=0*=-*7-**&>,&*==1**&&1=&&&11&&&=2*=;*6;===<"
};
